X:1
T:It's Christmastime - Tenor
T:It's Christmastime - Tenor
L:1/8
Q:1/4=148
M:4/4
K:F
V:1 bass nm="Piano" snm="Pno."
V:1
 C3 A,- A,2 C2 | =B,3 G,- G,2 z2 | C3 A,- A,2 C2 | DDD=B,- B,2 B,2 | G,G,G,B,- B,2 z2 | z8 | %6
w: Christ- mas * it's|Christ- mas *|Christ- mas * it's|won- der- ful * Christ- mas|Ring- ing- of * bells,||
w: ||||||
 B,B,B,D- D2 D2 | E2 E6- |: E6 z2 | z8 | z4 z2 CC |"^Ladies sing Second time" CCCC- C3 C | %12
w: all ov- er * town it's|Christ- mas|||There's a|chill in the * air and|
w: ||||||
 =B,B,B,D- D2"^All" z D | CCCF- F F2 C | =B,4 z2 DD | C2 CF- F2 C2 | D2 DG- G2 z2 | C2 CF- F2 A2 | %18
w: frost ev ry where * a|blank- et of * new fall- en|snow There are|man- ger scenes * and|ev- er- greens *|ev- 'ry where * we|
w: * * * * * and|last min- ute plac * es to|go * *|||then we hur * ry|
 G6[K:bass] z2 | z4 B,3- B, | (A,4 F,4) | z2 _E,G,- G,G, B,2 | A,6 z2 | _A,-A,A,B,- B,2 B,2 | %24
w: go|Bright with|lights *|with beau- * ti ful|sounds;|Ring- ing of bells, * and|
w: home|Ooo *|Ooo *|Ooo * Ooo * *||then * we bring * hot|
 _DDDD- D2 z D | C-CCC- CC-CG,- | G,6 z2 | C2 C.D- D .C2 C- | C2 C2 C2 z2 | C2 CB,- B, C2 D- | %30
w: sing- ing no- el * as|shop * pers- rush * a * round||Christ- mas- time, * it's Christ-|* mas- time,|Christ- mas- time * is here|
w: choc- 'late and sing * a|Christ- * mas wish * to * them|||||
 (D4 C2) z F, | C2 C.D- D .C2 C- | C2 C2 C2 z C | C2 C=B,- B,2 B,2 | G,4 z4 | z8 | z4 z2 F,2 | %37
w: * * We|share the love * He came|* to give our|hearts are filled * with|cheer||this|
w: |||||||
 (3B,2 A,2 B,2 (3C2 B,2 C2 | D4 z2 A,2 | D2 DC- C2 C2 | D2 DC- C2 z2 | D2 DB,- B, B,2 A,- |1 %42
w: won- der- ful time of the|year. It's|Christ- mas- time * it's|Christ- mas- time *|Christ- mas- time * is here.|
w: |||||
 A,8 :|2 A,6 A,2 || =B,8 | z8 | z6 D,2 |[K:G] D,D,D,D,- D,D, D,2 | ^C,2 C,E,- E,2 E,2 | %49
w: |* it's|here||Old|friends- rem- i- nisce * a- bout|times they miss * and|
w: |||||||
 D,D,D,G,- G,2 B,2 | A,4 z4 | z8 | z8 | z8 | z4 z2 A,2 | A,A,A,C- C2 A,2 | G,G,G,B,- B,2 B,2 | %57
w: Christ- mas- es long * a|go||||In|far- a- way lands * the|sold- iers make plans * to|
w: ||||||||
 A,A,A,C- CC A,2 | G,4 z2 G,2 | G,G,G,A,- A,2 A,A, | _B,2 B,C- C2 CC | D2 DD D2 D2 | D8 | z8 | %64
w: be with their fam * lies at|home Young|lad- ies will scheme- * to ful|fill their dreams- * be- ing|caught un- der mis- tle-|toe||
w: |||||||
 D2 DE- E D2 D- | D2 D2 D2 z2 | D2 DC- C D2 E- | (E4 D2) z G, | D2 DE- E D2 D- | D2 D2 D2 z D | %70
w: Christ- mas- time, * it's Christ-|* mas- time|Christ- mas- time * is here|* * We|share the love * he came|* to give our|
w: ||||||
 D2 D^C- C2 C2 | A,4 z4 | z8 | z4 z2 G,2 | (3C2 B,2 C2 (3A,2 A,2 A,2 | B,6 z2 | C2 CD- D2 D2 | %77
w: hearts are filled * with|cheer||this|won- der- ful time of the|year.|Christ- mas- time * it's|
w: |||||||
 E2 ED- D2 z2 | z8 | z2 z2 z2 B,2 | (3C2 B,2 C2 (3D2 C2 D2 | (^C8 | =C8) | z4 D2 D2 | C3 C- C2 z2 | %85
w: Christ- mas- time *||This|won- der- ful time of the|year||Christ- mas-|time is *|
w: ||||||||
 D8- | D8- | D6 z2 | G,2 A,B,- B,C D2 | C D3- D4- | D2 z2 z4 |] %91
w: here|||Christ- mas- time * is here|Christ- mas *||
w: ||||||

